icon-themes/breeze_svg/cmd/sc_advancedmode.svg

<svg xmlns="http://www.w3.org/2000/svg" viewBox="0 0 16 16">
 <path 
     style="fill:#4d4d4d" 
     d="M 7.09375 2 L 9.09375 4 L 6.8125 4 L 6 4 L 6 5 L 6.8125 5 L 9.09375 5 L 7.09375 7 L 8.5 7 L 10.8125 4.71875 L 11 4.5 L 10.8125 4.28125 L 8.5 2 L 7.09375 2 z M 3.5 5 C 3.22386 5 3 5.22386 3 5.5 C 3 5.77614 3.22386 6 3.5 6 C 3.77614 6 4 5.77614 4 5.5 C 4 5.22386 3.77614 5 3.5 5 z M 10.46875 6.5625 L 6.5625 10.46875 L 10.09375 14 L 14 10.09375 L 10.46875 6.5625 z M 2.5 8 C 2.2238576 8 2 8.2238576 2 8.5 C 2 8.7761424 2.2238576 9 2.5 9 C 2.7761424 9 3 8.7761424 3 8.5 C 3 8.2238576 2.7761424 8 2.5 8 z M 3.5 11 C 3.2238576 11 3 11.223858 3 11.5 C 3 11.776142 3.2238576 12 3.5 12 C 3.7761424 12 4 11.776142 4 11.5 C 4 11.223858 3.7761424 11 3.5 11 z M 6.5 12 C 6.2238576 12 6 12.223858 6 12.5 C 6 12.776142 6.2238576 13 6.5 13 C 6.7761424 13 7 12.776142 7 12.5 C 7 12.223858 6.7761424 12 6.5 12 z "
     />
 </svg>

<svg viewBox="0 0 16 16" xmlns="http://www.w3.org/2000/svg"><path d="m7.09375 2 2 2h-2.28125-.8125v1h.8125 2.28125l-2 2h1.40625l2.3125-2.28125.1875-.21875-.1875-.21875-2.3125-2.28125zm-3.59375 3c-.27614 0-.5.22386-.5.5s.22386.5.5.5.5-.22386.5-.5-.22386-.5-.5-.5zm6.96875 1.5625-3.90625 3.90625 3.53125 3.53125 3.90625-3.90625zm-7.96875 1.4375c-.2761424 0-.5.2238576-.5.5s.2238576.5.5.5.5-.2238576.5-.5-.2238576-.5-.5-.5zm1 3c-.2761424 0-.5.223858-.5.5s.2238576.5.5.5.5-.223858.5-.5-.2238576-.5-.5-.5zm3 1c-.2761424 0-.5.223858-.5.5s.2238576.5.5.5.5-.223858.5-.5-.2238576-.5-.5-.5z" fill="#4d4d4d"/></svg>
